X: 1
T: Eamonn McGivney's
R: hornpipe
M: 4/4
L: 1/8
K: Edor
GA|:Beed e2ef|edBA BABc|d2dc dfgf|edBG AdBA|
G2GA B2gB|edBd eg3|EFGA BdBA|GEED E2GA:|
|:BGEG BGEG|BGAF ~E3B|AFDF AFDF|AF (3GFE DE (3FED|
G2GA B2gB|edBd eg3|EFGA BdBA|GEED E2GA:|


Tune 2020	Setting 27114

